src/assets/icons/days,fancy,sunday.svg

<svg width="48" height="48" viewBox="0 0 48 48" fill="none" xmlns="http://www.w3.org/2000/svg">
<rect opacity="0.2" x="4" y="6" width="40" height="40" rx="4" fill="black"/>
<path d="M19.6577 26.5653H23.1946C23.1435 23.4545 20.5866 21.3068 16.7003 21.3068C12.8736 21.3068 10.0696 23.4205 10.0866 26.5909C10.0781 29.1648 11.8935 30.6392 14.8423 31.3466L16.7429 31.8239C18.6435 32.2841 19.7003 32.8295 19.7088 34.0057C19.7003 35.2841 18.4901 36.1534 16.6151 36.1534C14.6974 36.1534 13.3168 35.267 13.1974 33.5199H9.62642C9.72017 37.2955 12.4219 39.2472 16.6577 39.2472C20.919 39.2472 23.4247 37.2102 23.4332 34.0142C23.4247 31.108 21.2344 29.5653 18.2003 28.8835L16.6321 28.5085C15.1151 28.1591 13.8452 27.5966 13.8707 26.3438C13.8707 25.2188 14.8679 24.392 16.6747 24.392C18.4389 24.392 19.5213 25.1932 19.6577 26.5653ZM34.2422 33.4261C34.2507 35.1818 33.049 36.1023 31.745 36.1023C30.3729 36.1023 29.4865 35.1392 29.478 33.5966V25.9091H25.8473V34.2443C25.8558 37.304 27.6456 39.1705 30.2791 39.1705C32.2479 39.1705 33.6626 38.1562 34.2507 36.6222H34.3871V39H37.8729V25.9091H34.2422V33.4261Z" fill="black"/>
<g opacity="0.4">
<path d="M10 4C10 2.89543 10.8954 2 12 2C13.1046 2 14 2.89543 14 4V8C14 9.10457 13.1046 10 12 10C10.8954 10 10 9.10457 10 8V4Z" fill="black"/>
<path d="M34 4C34 2.89543 34.8954 2 36 2C37.1046 2 38 2.89543 38 4V8C38 9.10457 37.1046 10 36 10C34.8954 10 34 9.10457 34 8V4Z" fill="black"/>
</g>
<path fill-rule="evenodd" clip-rule="evenodd" d="M10 6.00869C7.52043 6.04456 6.11466 6.22849 5.17157 7.17157C4 8.34315 4 10.2288 4 14V16H44V14C44 10.2288 44 8.34315 42.8284 7.17157C41.8853 6.22849 40.4796 6.04456 38 6.00869V8C38 9.10457 37.1046 10 36 10C34.8954 10 34 9.10457 34 8V6H14V8C14 9.10457 13.1046 10 12 10C10.8954 10 10 9.10457 10 8V6.00869Z" fill="black"/>
</svg>

<svg xmlns="http://www.w3.org/2000/svg" width="48" height="48" fill="none" viewBox="0 0 48 48">
  <rect width="40" height="40" x="4" y="6" fill="#000" opacity=".2" rx="4"/>
  <path fill="#000" d="M19.658 26.565h3.537c-.052-3.11-2.608-5.258-6.495-5.258-3.826 0-6.63 2.114-6.613 5.284-.009 2.574 1.806 4.048 4.755 4.756l1.9.477c1.901.46 2.958 1.006 2.967 2.182-.009 1.278-1.219 2.147-3.094 2.147-1.918 0-3.298-.886-3.418-2.633h-3.57c.093 3.775 2.795 5.727 7.03 5.727 4.262 0 6.768-2.037 6.776-5.233-.008-2.906-2.199-4.449-5.233-5.13l-1.568-.375c-1.517-.35-2.787-.912-2.761-2.165 0-1.125.997-1.952 2.804-1.952 1.764 0 2.846.801 2.983 2.173zm14.584 6.861c.009 1.756-1.193 2.676-2.497 2.676-1.372 0-2.259-.963-2.267-2.505v-7.688h-3.63v8.335c.008 3.06 1.798 4.926 4.431 4.926 1.969 0 3.384-1.014 3.972-2.548h.136V39h3.486V25.91h-3.63v7.516z"/>
  <g opacity=".4">
    <path fill="#000" d="M10 4a2 2 0 114 0v4a2 2 0 11-4 0V4zM34 4a2 2 0 114 0v4a2 2 0 11-4 0V4z"/>
  </g>
  <path fill="#000" fill-rule="evenodd" d="M10 6.009c-2.48.036-3.885.22-4.828 1.163C4 8.343 4 10.229 4 14v2h40v-2c0-3.771 0-5.657-1.172-6.828-.943-.944-2.348-1.127-4.828-1.163V8a2 2 0 11-4 0V6H14v2a2 2 0 11-4 0V6.009z" clip-rule="evenodd"/>
</svg>
